X:1
T:Chennai, 11.11.11 D
T:Chennai, 11.11.11 D
T:Hubert Platt Main, 1872
T:Public Domain Courtesy of the Cyber Hymnal™
C:Hubert Platt Main, 1872
Z:Public Domain
Z:Courtesy of the Cyber Hymnal™
%%score ( 1 2 ) ( 3 4 )
L:1/8
Q:1/4=95
M:4/4
K:G
V:1 treble 
V:2 treble 
V:3 bass 
V:4 bass 
V:1
 [DB]>[CA] [Ec]>[DB] [CA]2 [B,G]2 | [EG]>[^DF] [EG]>[CE] [B,=D]4 | %2
 [DG]>[DA] [DB]>[Gc] [Gd]2 [DB]2 | [DG]>[DG] [^CA]>[CB] [DA]4 | [DB]>[CA] [Ec]>[DB] [CA]2 [B,G]2 | %5
 [EA]>[EG] [DF]>[CE] [B,D]4 | [CE]>[DF] [DG]>[DA] [DB]2 !fermata![Ec]2 | %7
 [DB]>[DA] [DG]>[CF] [B,G]4 | [FA]>[Fd] [E^c]>[Ge] [Fd]2 [FA]2 | [Gd]>[G^c] [GB]>[Gc] d4 | %10
 [Ge]>[Gd] [GB]>[DG] [CE]2 !fermata![EG]2 |"^riten." [B,D]>[B,G] [CA]>[DB] [B,G]4 |] %12
V:2
 x8 | x8 | x8 | x8 | x8 | x8 | x8 | x8 | x8 | x4 (F2 A2) | x8 | x8 |] %12
V:3
 G,>G, G,>G, [D,F,]2 [E,G,]2 | [C,G,]>[C,G,] [C,G,]>[C,G,] [G,,G,]4 | %2
 [B,,G,]>[D,F,] G,>[G,A,] [G,B,]2 G,2 | [G,B,]>[G,B,] [E,A,]>[E,G,] [D,F,]4 | %4
 G,>G, G,>G, [D,F,]2 [E,G,]2 | [C,G,]>[C,G,] [C,G,]>[C,G,] [G,,G,]4 | %6
 [C,G,]>[C,A,] [B,,G,]>[D,F,] G,2 !fermata![C,G,]2 | [D,G,]>[D,C] [D,B,]>[D,A,] G,4 | %8
 [D,D]>[D,A,] [A,,A,]>[A,,A,] [D,A,]2 [D,D]2 | [A,E]>[A,E] [A,E]>[A,E] (D2 C2) | %10
 [G,B,]>[G,B,] [G,,D]>[B,,G,] [C,G,]2 !fermata![C,G,]2 | [D,G,]>[D,G,] [D,F,]>[D,F,] [G,,G,]4 |] %12
V:4
 G,>G, G,>G, x4 | x8 | x2 G,3/2 x G,2 x3/2 | x8 | G,>G, G,>G, x4 | x8 | x4 G,2 x2 | x4 G,4 | x8 | %9
 x4 D,4 | x8 | x8 |] %12

